src/lib/packages/icons/src/assets/line/arrow-turn-right-up.svg

<svg width="24" height="24" viewBox="0 0 24 24" fill="none" xmlns="http://www.w3.org/2000/svg">
<path d="M18.53 7.53014C18.384 7.67614 18.192 7.75012 18 7.75012C17.808 7.75012 17.616 7.67714 17.47 7.53014L14.75 4.81017V18.0001C14.75 20.0681 13.067 21.7501 11 21.7501H6C5.586 21.7501 5.25 21.4141 5.25 21.0001C5.25 20.5861 5.586 20.2501 6 20.2501H11C12.24 20.2501 13.25 19.2411 13.25 18.0001V4.81115L10.53 7.53112C10.237 7.82412 9.76199 7.82412 9.46899 7.53112C9.17599 7.23812 9.17599 6.76309 9.46899 6.47009L13.469 2.47009C13.538 2.40109 13.6209 2.34622 13.7129 2.30822C13.8959 2.23222 14.1029 2.23222 14.2859 2.30822C14.3779 2.34622 14.461 2.40109 14.53 2.47009L18.53 6.47009C18.823 6.76309 18.823 7.23714 18.53 7.53014Z" fill="currentColor"/>
</svg>

<svg xmlns="http://www.w3.org/2000/svg" width="24" height="24" fill="none"><path fill="currentColor" d="M18.53 7.53a.748.748 0 0 1-1.06 0l-2.72-2.72V18A3.755 3.755 0 0 1 11 21.75H6a.75.75 0 0 1 0-1.5h5c1.24 0 2.25-1.009 2.25-2.25V4.811l-2.72 2.72a.75.75 0 1 1-1.061-1.06l4-4a.748.748 0 0 1 .817-.163.749.749 0 0 1 .244.162l4 4a.75.75 0 0 1 0 1.06Z"/></svg>
